images/cotacao/corn.svg

<?xml version="1.0" encoding="UTF-8"?> <!-- Generator: Adobe Illustrator 19.0.0, SVG Export Plug-In . SVG Version: 6.00 Build 0) --> <svg xmlns="http://www.w3.org/2000/svg" xmlns:xlink="http://www.w3.org/1999/xlink" id="Capa_1" x="0px" y="0px" viewBox="0 0 511.999 511.999" style="enable-background:new 0 0 511.999 511.999;" xml:space="preserve"> <g> <g> <path d="M270.344,354.729c-3.909-3.899-10.238-3.899-14.147,0c-3.899,3.909-3.899,10.238,0,14.137 c3.909,3.909,10.238,3.909,14.147,0C274.243,364.966,274.243,358.638,270.344,354.729z"></path> </g> </g> <g> <g> <path d="M240.166,380.934c-3.643-4.148-9.961-4.559-14.11-0.916c-44.713,39.26-87.973,45.394-111.43,38.718 c-5.312-1.511-10.842,1.569-12.352,6.879c-1.511,5.311,1.569,10.842,6.879,12.352c7.166,2.04,15.111,3.053,23.533,3.053 c11.299,0,23.458-1.825,35.744-5.445c24.275-7.15,48.763-21.166,70.819-40.533C243.398,391.4,243.808,385.084,240.166,380.934z"></path> </g> </g> <g> <g> <path d="M499.08,113.296c17.469-48.186,17.22-81.725-0.737-99.682c-17.732-17.733-50.789-18.118-98.254-1.144 c-36.475,13.043-80.867,36.488-121.79,64.321c-20.138,13.691-39.551,28.982-56.821,44.714 c-8.401-17.309-19.521-33.102-32.644-46.233c-3.653-3.655-9.49-3.924-13.464-0.621c-3.974,3.304-4.774,9.092-1.847,13.351 c3.728,5.425,4.327,20.536-6.259,45.274c-8.702,20.335-28.152,54.527-71.391,101.929C53.132,282.062,20.108,346.311,33.95,407.311 L8.772,432.489c-11.695,11.696-11.695,30.727,0,42.424l28.274,28.274c11.721,11.721,30.7,11.724,42.424-0.002l25.103-25.112 c58.561,13.208,122.423-16.962,166.825-58.19c48.891-45.399,84.222-65.925,105.25-75.151 c25.563-11.214,41.144-10.719,46.716-6.887c4.259,2.927,10.045,2.127,13.35-1.847c3.304-3.973,3.036-9.809-0.618-13.463 c-12.616-12.615-28.729-22.958-47.164-30.391c15.466-16.818,30.548-35.738,44.144-55.428 C461.535,195.488,485.592,150.504,499.08,113.296z M65.329,489.048c-3.907,3.907-10.236,3.908-14.145,0L22.91,460.774 c-3.907-3.906-3.907-10.238,0-14.144l18.137-18.136c4.247,9.25,9.733,17.442,16.241,24.196 c4.65,5.287,14.855,13.139,26.087,18.306L65.329,489.048z M395.685,317.35c-8.302,1.792-17.381,4.819-27.07,9.07 c-32.182,14.119-70.504,41.371-110.823,78.809c-68.972,64.039-150.18,69.543-185.393,34.329 c-7.996-7.996-14.134-19.019-17.752-31.885c-13.161-46.687,7.773-106.123,56-158.991c35.717-39.155,61.652-76.342,75.001-107.539 c4.173-9.752,7.085-18.872,8.725-27.188c10.222,15.92,17.558,33.755,21.522,52.354c5.17,24.218,1.453,55.416-10.467,87.846 c-12.849,34.961-34.22,69.353-61.801,99.458c-3.615,3.946-3.481,10.039,0.302,13.823c3.783,3.784,9.877,3.917,13.823,0.303 c64.217-58.828,142.877-81.896,210.418-61.707C378.028,308.975,387.264,312.784,395.685,317.35z M367.995,285.222 c-56.275-14.769-117.018-2.553-168.621,27.081c31.137-51.774,45.225-107.315,36.077-150.166 c-1.507-7.066-3.46-14.079-5.822-20.927c17.849-16.816,38.439-33.284,59.913-47.883c39.584-26.922,82.331-49.531,117.28-62.028 c38.44-13.746,65.922-15.006,77.382-3.545c11.653,11.651,10.261,39.611-3.92,78.728c-12.931,35.668-36.134,78.996-63.661,118.874 C401.721,246.933,384.991,267.518,367.995,285.222z"></path> </g> </g> <g> <g> <path d="M284.642,171.319l-14.137-14.137c-3.904-3.904-10.235-3.904-14.139,0c-3.904,3.904-3.904,10.235,0,14.139l14.137,14.137 c3.904,3.904,10.235,3.904,14.139,0C288.546,181.554,288.546,175.223,284.642,171.319z"></path> </g> </g> <g> <g> <path d="M355.337,242.013L341.2,227.876c-3.904-3.904-10.235-3.904-14.14,0c-3.904,3.904-3.904,10.235,0,14.14l14.137,14.137 c3.904,3.904,10.235,3.904,14.14,0C359.241,252.249,359.241,245.918,355.337,242.013z"></path> </g> </g> <g> <g> <path d="M348.267,178.386L334.13,164.25c-3.904-3.904-10.235-3.904-14.14,0c-3.904,3.904-3.904,10.235,0,14.14l14.137,14.137 c3.904,3.904,10.236,3.905,14.14,0C352.171,188.622,352.171,182.291,348.267,178.386z"></path> </g> </g> <g> <g> <path d="M291.71,234.944l-14.137-14.137c-3.904-3.904-10.235-3.904-14.14,0c-3.905,3.904-3.904,10.235,0,14.14l14.137,14.137 c3.904,3.904,10.235,3.904,14.14,0C295.614,245.179,295.614,238.849,291.71,234.944z"></path> </g> </g> <g> <g> <path d="M404.825,121.829l-14.137-14.137c-3.904-3.904-10.235-3.904-14.14,0c-3.904,3.904-3.904,10.235,0,14.14l14.137,14.137 c3.904,3.904,10.236,3.904,14.14,0S408.729,125.734,404.825,121.829z"></path> </g> </g> <g> <g> <path d="M447.243,79.417L433.096,65.28c-3.905-3.902-10.235-3.899-14.14,0.005c-3.903,3.906-3.9,10.236,0.005,14.14l14.147,14.137 c3.904,3.902,10.235,3.901,14.14-0.005C451.151,89.65,451.148,83.321,447.243,79.417z"></path> </g> </g> <g> <g> <path d="M341.2,114.761l-14.137-14.137c-3.904-3.904-10.235-3.904-14.14,0s-3.904,10.235,0,14.14L327.06,128.9 c3.903,3.904,10.235,3.905,14.14,0C345.104,124.996,345.104,118.666,341.2,114.761z"></path> </g> </g> <g> <g> <path d="M411.893,185.455l-14.137-14.137c-3.904-3.904-10.235-3.904-14.14,0c-3.905,3.904-3.904,10.235,0,14.14l14.137,14.137 c3.904,3.904,10.235,3.904,14.14,0C415.797,195.69,415.797,189.36,411.893,185.455z"></path> </g> </g> <g> </g> <g> </g> <g> </g> <g> </g> <g> </g> <g> </g> <g> </g> <g> </g> <g> </g> <g> </g> <g> </g> <g> </g> <g> </g> <g> </g> <g> </g> </svg>

<svg width="512" height="512" viewBox="0 0 512 512" fill="none" xmlns="http://www.w3.org/2000/svg">
<g clip-path="url(#clip0)">
<path d="M270.344 354.729C266.435 350.83 260.106 350.83 256.197 354.729C252.298 358.638 252.298 364.967 256.197 368.866C260.106 372.775 266.435 372.775 270.344 368.866C274.243 364.966 274.243 358.638 270.344 354.729Z" fill="black"/>
<path d="M240.166 380.934C236.523 376.786 230.205 376.375 226.056 380.018C181.343 419.278 138.083 425.412 114.626 418.736C109.314 417.225 103.784 420.305 102.274 425.615C100.763 430.926 103.843 436.457 109.153 437.967C116.319 440.007 124.264 441.02 132.686 441.02C143.985 441.02 156.144 439.195 168.43 435.575C192.705 428.425 217.193 414.409 239.249 395.042C243.398 391.4 243.808 385.084 240.166 380.934Z" fill="black"/>
<path d="M499.08 113.296C516.549 65.11 516.3 31.571 498.343 13.614C480.611 -4.119 447.554 -4.504 400.089 12.47C363.614 25.513 319.222 48.958 278.299 76.791C258.161 90.482 238.748 105.773 221.478 121.505C213.077 104.196 201.957 88.403 188.834 75.272C185.181 71.617 179.344 71.348 175.37 74.651C171.396 77.955 170.596 83.743 173.523 88.002C177.251 93.427 177.85 108.538 167.264 133.276C158.562 153.611 139.112 187.803 95.873 235.205C53.132 282.062 20.108 346.311 33.95 407.311L8.77198 432.489C-2.92302 444.185 -2.92302 463.216 8.77198 474.913L37.046 503.187C48.767 514.908 67.746 514.911 79.47 503.185L104.573 478.073C163.134 491.281 226.996 461.111 271.398 419.883C320.289 374.484 355.62 353.958 376.648 344.732C402.211 333.518 417.792 334.013 423.364 337.845C427.623 340.772 433.409 339.972 436.714 335.998C440.018 332.025 439.75 326.189 436.096 322.535C423.48 309.92 407.367 299.577 388.932 292.144C404.398 275.326 419.48 256.406 433.076 236.716C461.535 195.488 485.592 150.504 499.08 113.296ZM65.329 489.048C61.422 492.955 55.093 492.956 51.184 489.048L22.91 460.774C19.003 456.868 19.003 450.536 22.91 446.63L41.047 428.494C45.294 437.744 50.78 445.936 57.288 452.69C61.938 457.977 72.143 465.829 83.375 470.996L65.329 489.048ZM395.685 317.35C387.383 319.142 378.304 322.169 368.615 326.42C336.433 340.539 298.111 367.791 257.792 405.229C188.82 469.268 107.612 474.772 72.399 439.558C64.403 431.562 58.265 420.539 54.647 407.673C41.486 360.986 62.42 301.55 110.647 248.682C146.364 209.527 172.299 172.34 185.648 141.143C189.821 131.391 192.733 122.271 194.373 113.955C204.595 129.875 211.931 147.71 215.895 166.309C221.065 190.527 217.348 221.725 205.428 254.155C192.579 289.116 171.208 323.508 143.627 353.613C140.012 357.559 140.146 363.652 143.929 367.436C147.712 371.22 153.806 371.353 157.752 367.739C221.969 308.911 300.629 285.843 368.17 306.032C378.028 308.975 387.264 312.784 395.685 317.35ZM367.995 285.222C311.72 270.453 250.977 282.669 199.374 312.303C230.511 260.529 244.599 204.988 235.451 162.137C233.944 155.071 231.991 148.058 229.629 141.21C247.478 124.394 268.068 107.926 289.542 93.327C329.126 66.405 371.873 43.796 406.822 31.299C445.262 17.553 472.744 16.293 484.204 27.754C495.857 39.405 494.465 67.365 480.284 106.482C467.353 142.15 444.15 185.478 416.623 225.356C401.721 246.933 384.991 267.518 367.995 285.222Z" fill="black"/>
<path d="M284.642 171.319L270.505 157.182C266.601 153.278 260.27 153.278 256.366 157.182C252.462 161.086 252.462 167.417 256.366 171.321L270.503 185.458C274.407 189.362 280.738 189.362 284.642 185.458C288.546 181.554 288.546 175.223 284.642 171.319Z" fill="black"/>
<path d="M355.337 242.013L341.2 227.876C337.296 223.972 330.965 223.972 327.06 227.876C323.156 231.78 323.156 238.111 327.06 242.016L341.197 256.153C345.101 260.057 351.432 260.057 355.337 256.153C359.241 252.249 359.241 245.918 355.337 242.013Z" fill="black"/>
<path d="M348.267 178.386L334.13 164.25C330.226 160.346 323.895 160.346 319.99 164.25C316.086 168.154 316.086 174.485 319.99 178.39L334.127 192.527C338.031 196.431 344.363 196.432 348.267 192.527C352.171 188.622 352.171 182.291 348.267 178.386Z" fill="black"/>
<path d="M291.71 234.944L277.573 220.807C273.669 216.903 267.338 216.903 263.433 220.807C259.528 224.711 259.529 231.042 263.433 234.947L277.57 249.084C281.474 252.988 287.805 252.988 291.71 249.084C295.614 245.179 295.614 238.849 291.71 234.944Z" fill="black"/>
<path d="M404.825 121.829L390.688 107.692C386.784 103.788 380.453 103.788 376.548 107.692C372.644 111.596 372.644 117.927 376.548 121.832L390.685 135.969C394.589 139.873 400.921 139.873 404.825 135.969C408.729 132.065 408.729 125.734 404.825 121.829Z" fill="black"/>
<path d="M447.243 79.417L433.096 65.28C429.191 61.378 422.861 61.381 418.956 65.285C415.053 69.191 415.056 75.521 418.961 79.425L433.108 93.562C437.012 97.464 443.343 97.463 447.248 93.557C451.151 89.65 451.148 83.321 447.243 79.417Z" fill="black"/>
<path d="M341.2 114.761L327.063 100.624C323.159 96.72 316.828 96.72 312.923 100.624C309.018 104.528 309.019 110.859 312.923 114.764L327.06 128.9C330.963 132.804 337.295 132.805 341.2 128.9C345.104 124.996 345.104 118.666 341.2 114.761Z" fill="black"/>
<path d="M411.893 185.455L397.756 171.318C393.852 167.414 387.521 167.414 383.616 171.318C379.711 175.222 379.712 181.553 383.616 185.458L397.753 199.595C401.657 203.499 407.988 203.499 411.893 199.595C415.797 195.69 415.797 189.36 411.893 185.455Z" fill="black"/>
</g>
<defs>
<clipPath id="clip0">
<rect width="511.999" height="511.999" fill="white"/>
</clipPath>
</defs>
</svg>
